dist/vk-icon.259c732a.svg

<svg width="21" height="12" viewBox="0 0 21 12" fill="none" xmlns="http://www.w3.org/2000/svg">
<path d="M17.4184 6.33166C17.0952 5.94638 17.1877 5.77496 17.4184 5.43057C17.4225 5.42664 20.0899 1.9465 20.3647 0.766267L20.3664 0.765481C20.503 0.335377 20.3664 0.0192871 19.706 0.0192871H17.5208C16.9645 0.0192871 16.708 0.290559 16.5706 0.594068C16.5706 0.594068 15.458 3.10864 13.884 4.73863C13.376 5.20962 13.1412 5.36059 12.8639 5.36059C12.7273 5.36059 12.5149 5.20962 12.5149 4.77951V0.765481C12.5149 0.249671 12.3592 0.0192871 11.8987 0.0192871H8.46262C8.11368 0.0192871 7.90632 0.259893 7.90632 0.483987C7.90632 0.973063 8.6933 1.0855 8.77491 2.46152V5.44708C8.77491 6.10128 8.64916 6.22158 8.37018 6.22158C7.62733 6.22158 5.82436 3.69679 4.7559 0.807154C4.54021 0.246526 4.32952 0.0200733 3.76905 0.0200733H1.583C0.959246 0.0200733 0.833496 0.291345 0.833496 0.594855C0.833496 1.13111 1.57634 3.79743 4.28788 7.32003C6.09501 9.72452 8.64 11.0274 10.9551 11.0274C12.3467 11.0274 12.5166 10.7381 12.5166 10.2403C12.5166 7.94278 12.3908 7.72576 13.0879 7.72576C13.411 7.72576 13.9673 7.87673 15.2664 9.03651C16.7513 10.4117 16.9953 11.0274 17.8264 11.0274H20.0116C20.6346 11.0274 20.9502 10.7381 20.7686 10.1672C20.3531 8.96653 17.5449 6.49678 17.4184 6.33166Z" fill="#2C4CBC"/>
</svg>

<svg xmlns="http://www.w3.org/2000/svg" width="21" height="12" fill="none" xmlns:v="https://vecta.io/nano"><path d="M17.418 6.332c-.323-.385-.231-.557 0-.901.004-.004 2.672-3.484 2.946-4.664l.002-.001c.137-.43 0-.746-.66-.746h-2.185c-.556 0-.813.271-.95.575 0 0-1.113 2.515-2.687 4.145-.508.471-.743.622-1.02.622-.137 0-.349-.151-.349-.581V.765c0-.516-.156-.746-.616-.746H8.463c-.349 0-.556.241-.556.465 0 .489.787.602.869 1.978v2.986c0 .654-.126.775-.405.775-.743 0-2.546-2.525-3.614-5.414C4.54.247 4.33.02 3.769.02H1.583c-.624 0-.75.271-.75.575 0 .536.743 3.203 3.454 6.725 1.807 2.404 4.352 3.707 6.667 3.707 1.392 0 1.562-.289 1.562-.787 0-2.298-.126-2.515.571-2.515.323 0 .879.151 2.179 1.311 1.485 1.375 1.729 1.991 2.56 1.991h2.185c.623 0 .939-.289.757-.86-.415-1.201-3.224-3.67-3.35-3.836z" fill="#2c4cbc"/></svg>
